src/main/webapp/scripts/pdfjs/v54530/web/images/toolbarButton-menuArrow.svg

<svg fill="none" height="16" viewBox="0 0 16 16" width="16" xmlns="http://www.w3.org/2000/svg"><path d="m8.23336 10.4664 3.61404-3.61301c.0466-.04629.0836-.10136.1089-.16203s.0383-.12574.0383-.19147c0-.06572-.013-.13079-.0383-.19146s-.0623-.11574-.1089-.16204c-.0938-.09373-.221-.14639-.3535-.14639-.1326 0-.2598.05266-.3535.14639l-3.14804 3.147-3.145-3.146c-.09431-.09108-.22061-.14147-.3517-.14033-.1311.00114-.25651.05372-.34921.14642-.09271.09271-.14529.21811-.14643.34921s.04926.2574.14034.3517l3.612 3.61301z" fill="#000"/></svg>

<svg width="16" height="16" viewBox="0 0 16 16" fill="none" xmlns="http://www.w3.org/2000/svg">
<path d="M8.23336 10.4664L11.8474 6.85339C11.894 6.8071 11.931 6.75203 11.9563 6.69136C11.9816 6.63069 11.9946 6.56562 11.9946 6.49989C11.9946 6.43417 11.9816 6.3691 11.9563 6.30843C11.931 6.24776 11.894 6.19269 11.8474 6.14639C11.7536 6.05266 11.6264 6 11.4939 6C11.3613 6 11.2341 6.05266 11.1404 6.14639L7.99236 9.29339L4.84736 6.14739C4.75305 6.05631 4.62675 6.00592 4.49566 6.00706C4.36456 6.0082 4.23915 6.06078 4.14645 6.15348C4.05374 6.24619 4.00116 6.37159 4.00002 6.50269C3.99888 6.63379 4.04928 6.76009 4.14036 6.85439L7.75236 10.4674L8.23336 10.4664Z" fill="black"/>
</svg>
